static/images/Support.svg

<svg width="179" height="179" viewBox="0 0 179 179" fill="none" xmlns="http://www.w3.org/2000/svg">
<circle cx="89.1757" cy="89.8212" r="88.9482" fill="black" fill-opacity="0.25"/>
<mask id="mask0" mask-type="alpha" maskUnits="userSpaceOnUse" x="0" y="0" width="179" height="179">
<circle cx="89.1757" cy="89.8212" r="88.9482" fill="#C4C4C4"/>
</mask>
<g mask="url(#mask0)">
<path fill-rule="evenodd" clip-rule="evenodd" d="M91.0364 115.207L112.656 93.7846L115.597 90.8691C122.864 83.3442 122.864 71.0293 115.597 63.5044C109.001 56.6674 98.3376 58.3788 91.286 64.7341C89.9874 65.9037 89.5316 66.4884 89.1789 66.4884C88.8263 66.4884 88.3705 65.9037 87.0635 64.7341C80.0206 58.3788 69.3568 56.6674 62.761 63.5044C55.4944 71.0293 55.4944 83.3442 62.761 90.8691L65.702 93.7846L87.3128 115.207C88.2502 115.946 88.7144 116.351 89.1789 116.368C89.6432 116.351 90.1077 115.946 91.0364 115.207Z" fill="#FF8086"/>
<path fill-rule="evenodd" clip-rule="evenodd" d="M29.6783 113.719L18.7568 97.0607C18.7481 97.0006 23.908 82.5097 23.8909 82.4583L23.4868 80.2569C22.9709 77.7199 24.6305 75.2173 27.1759 74.7101C29.7128 74.1941 32.2065 75.8538 32.7399 78.5026L34.9242 90.3617L38.8886 111.844C36.8932 115.886 32.0947 115.705 29.6783 113.719V113.719Z" fill="#C38C66"/>
<path fill-rule="evenodd" clip-rule="evenodd" d="M50.1022 121.287L47.0664 112.738L47.6512 107.991C47.2642 105.669 48.8036 103.416 51.1253 102.952C53.4987 102.47 55.8378 104.026 56.3282 106.503L60.7569 130.256L54.3417 127.796L50.1022 121.287Z" fill="#C38C66"/>
<path fill-rule="evenodd" clip-rule="evenodd" d="M38.8888 111.844L34.1592 101.043L34.9247 90.3617C34.9764 88.2117 36.507 86.2854 38.7084 85.8468C41.2454 85.3308 43.7391 86.9905 44.2724 89.648L47.6521 107.991C47.6608 108.043 47.6693 108.086 47.678 108.138L50.1031 121.287L43.7051 120.418L38.8888 111.844Z" fill="#C38C66"/>
<path fill-rule="evenodd" clip-rule="evenodd" d="M50.1023 121.286L47.6772 108.137L47.6513 107.991C47.2644 105.669 48.8037 103.416 51.1254 102.952C52.1919 102.737 53.2496 102.926 54.1437 103.433C52.4411 104.276 51.4177 106.168 51.7445 108.112L51.7703 108.258L54.3416 124.864L50.1023 121.286Z" fill="#B57F5F"/>
<path fill-rule="evenodd" clip-rule="evenodd" d="M38.8888 111.844L34.9243 90.3619C34.976 88.2119 36.5067 86.2856 38.7081 85.8469C40.6946 85.4428 42.6554 86.3715 43.6614 88.0658C43.3346 88.0658 42.9994 88.0916 42.6639 88.1605C40.4709 88.5991 39.9637 89.4936 39.9207 91.6433L44.4958 116.565L38.8888 111.844Z" fill="#B57F5F"/>
<path d="M126.585 53.014C126.103 53.014 125.617 52.8645 125.201 52.5549C124.171 51.7891 123.957 50.3339 124.723 49.3044L129.891 42.3556C130.657 41.3262 132.112 41.1127 133.141 41.8779C134.171 42.6437 134.385 44.0988 133.619 45.1283L128.451 52.0771C127.995 52.6901 127.294 53.014 126.585 53.014Z" fill="white"/>
<path d="M134.97 66.7912C133.924 66.7912 132.974 66.0795 132.715 65.0185C132.411 63.772 133.175 62.5152 134.421 62.211L142.703 60.1899C143.949 59.8854 145.206 60.6496 145.51 61.8959C145.814 63.1424 145.05 64.3992 143.804 64.7034L135.523 66.7245C135.338 66.7696 135.153 66.7912 134.97 66.7912Z" fill="white"/>
<path d="M110.977 48.9544C109.751 48.9544 108.726 47.9944 108.659 46.7557L108.204 38.2419C108.135 36.9608 109.118 35.8667 110.399 35.7982C111.677 35.7311 112.774 36.7122 112.843 37.9936L113.299 46.5073C113.367 47.7884 112.385 48.8825 111.103 48.9511C111.061 48.9535 111.019 48.9544 110.977 48.9544Z" fill="white"/>
<path d="M51.7722 53.0132C51.0626 53.0132 50.3624 52.6894 49.9063 52.0764L44.738 45.1276C43.9725 44.0981 44.1859 42.6429 45.2157 41.8772C46.2452 41.1114 47.7003 41.3254 48.4661 42.3549L53.6344 49.3037C54.3999 50.3332 54.1864 51.7884 53.1567 52.5541C52.7403 52.8638 52.2541 53.0132 51.7722 53.0132V53.0132Z" fill="white"/>
<path d="M43.3874 66.7911C43.2049 66.7911 43.02 66.7695 42.8348 66.7244L34.5535 64.7033C33.3073 64.3991 32.5433 63.1423 32.8476 61.8958C33.1515 60.6496 34.4086 59.8856 35.6551 60.1898L43.9364 62.2109C45.1827 62.5151 45.9466 63.7719 45.6424 65.0184C45.3835 66.0794 44.4334 66.7911 43.3874 66.7911Z" fill="white"/>
<path d="M67.3807 48.9545C67.3389 48.9545 67.2968 48.9533 67.2544 48.9512C65.9733 48.8826 64.9905 47.7885 65.059 46.5074L65.5148 37.9937C65.5831 36.7123 66.6739 35.73 67.9586 35.7983C69.2397 35.8668 70.2225 36.9609 70.154 38.242L69.6982 46.7558C69.6321 47.9945 68.6068 48.9545 67.3807 48.9545V48.9545Z" fill="white"/>
<path fill-rule="evenodd" clip-rule="evenodd" d="M115.597 90.8689C122.864 83.3441 122.864 71.0291 115.597 63.5042C112.097 59.875 107.453 58.654 102.81 59.2559C108.614 66.8325 108.141 77.9776 101.382 84.9694L98.441 87.8933L79.1006 107.062L87.3131 115.206C88.2505 115.946 88.7147 116.35 89.1793 116.367C89.6438 116.35 90.108 115.946 91.0367 115.206L112.656 93.7841L115.597 90.8689Z" fill="#E5646E"/>
<path fill-rule="evenodd" clip-rule="evenodd" d="M37.0051 149.527L27.8897 141.186C24.6562 138.227 21.0443 132.078 20.0296 127.907C18.5248 121.716 16.7188 111.482 16.134 107.655L12.2555 82.4658C11.7738 79.2924 14.9644 76.6694 18.1722 76.7124C21.3197 76.7554 23.2891 79.3697 23.891 82.4571L23.9253 82.6291L29.6783 113.718C30.5079 112.214 34.1588 113.015 34.1588 113.015C34.1588 113.015 37.3854 110.489 38.8884 111.843L60.7571 130.255C66.1491 134.796 69.8899 134.951 72.5041 149.192L72.1689 149.398L65.4182 163.296L48.7091 163.433C44.9425 157.353 42.7582 154.799 37.0051 149.527V149.527Z" fill="#D19A6E"/>
<path fill-rule="evenodd" clip-rule="evenodd" d="M67.1464 152.401C64.5494 139.716 60.8946 139.407 55.7091 135.047L33.8404 116.635C32.4817 115.413 30.7274 115.061 29.0849 115.362C29.0762 115.362 29.0762 115.362 29.0762 115.362C29.0933 115.31 29.102 115.25 29.1192 115.199C29.2999 114.442 29.6267 113.719 30.0996 113.057C30.8822 112.008 32.0088 111.217 33.2385 110.804C35.1305 110.168 37.2802 110.4 38.8885 111.845L43.0679 115.371L50.1024 121.287L54.342 124.865L60.7571 130.257C66.1492 134.798 69.8899 134.952 72.5042 149.193L67.1464 152.401Z" fill="#C38C66"/>
<path fill-rule="evenodd" clip-rule="evenodd" d="M49.9818 162.669L72.1689 149.4L74.0263 148.282C75.5828 147.353 77.621 147.86 78.5497 149.417L83.8558 158.284C84.7845 159.84 84.2686 161.87 82.7205 162.799L56.8013 178.304C55.2535 179.233 53.2154 178.726 52.2866 177.169L46.9806 168.302C46.0519 166.754 46.5678 164.716 48.1159 163.787L49.9818 162.669Z" fill="#ECEAED"/>
<path fill-rule="evenodd" clip-rule="evenodd" d="M67.1465 152.401H67.1552H67.1465ZM82.7203 162.798C84.2681 161.87 84.7843 159.84 83.8556 158.284L78.5496 149.417C77.6208 147.861 75.5827 147.353 74.0262 148.282C71.7387 149.658 69.4426 151.025 67.1552 152.401C68.703 151.472 70.7412 151.98 71.6699 153.536L76.9672 162.403C77.8959 163.951 77.3887 165.98 75.8493 166.909L82.7203 162.798Z" fill="#DAD8DB"/>
<path d="M47.0667 134.977C47.0667 134.977 31.643 121.287 30.6878 115.98C30.4151 114.464 30.9072 112.276 33.6174 110.728L33.501 109.998C31.7268 100.383 30.0919 90.6673 28.3195 81.0567C27.8207 78.6057 28.8096 76.4215 31.1917 75.7937C30.1168 74.8478 28.6547 74.4092 27.1758 74.7101C24.6304 75.2176 22.9705 77.72 23.4867 80.257L23.8908 82.4584C25.6935 91.765 27.3673 101.126 29.0811 110.462C27.9184 111.66 27.1319 113.268 26.8114 114.882C26.4043 116.931 26.4906 121.033 31.6421 125.486L44.9026 136.95C46.4068 138.281 48.2137 136.397 47.0667 134.977V134.977Z" fill="#B57F5F"/>
<path fill-rule="evenodd" clip-rule="evenodd" d="M148.671 113.719L159.592 97.0607C159.601 97.0006 154.441 82.5097 154.458 82.4583L154.862 80.2569C155.378 77.7199 153.718 75.2173 151.173 74.7101C148.636 74.1941 146.142 75.8538 145.609 78.5026L143.424 90.3617L139.46 111.844C141.456 115.886 146.254 115.705 148.671 113.719V113.719Z" fill="#C38C66"/>
<path fill-rule="evenodd" clip-rule="evenodd" d="M128.248 121.287L131.283 112.738L130.698 107.991C131.085 105.669 129.546 103.416 127.224 102.952C124.851 102.47 122.512 104.026 122.021 106.503L117.593 130.256L124.008 127.796L128.248 121.287Z" fill="#C38C66"/>
<path fill-rule="evenodd" clip-rule="evenodd" d="M139.461 111.844L144.191 101.043L143.426 90.3617C143.374 88.2117 141.843 86.2854 139.642 85.8468C137.105 85.3308 134.611 86.9905 134.078 89.648L130.698 107.991C130.689 108.043 130.681 108.086 130.672 108.138L128.247 121.287L134.645 120.418L139.461 111.844Z" fill="#C38C66"/>
<path fill-rule="evenodd" clip-rule="evenodd" d="M128.247 121.286L130.672 108.137L130.698 107.991C131.085 105.669 129.546 103.416 127.224 102.952C126.158 102.737 125.1 102.926 124.206 103.433C125.908 104.276 126.932 106.168 126.605 108.112L126.579 108.258L124.008 124.864L128.247 121.286Z" fill="#B57F5F"/>
<path fill-rule="evenodd" clip-rule="evenodd" d="M139.46 111.844L143.425 90.3619C143.373 88.2119 141.843 86.2856 139.641 85.8469C137.655 85.4428 135.694 86.3715 134.688 88.0658C135.015 88.0658 135.35 88.0916 135.685 88.1605C137.878 88.5991 138.386 89.4936 138.429 91.6433L133.854 116.565L139.46 111.844Z" fill="#B57F5F"/>
<path fill-rule="evenodd" clip-rule="evenodd" d="M141.344 149.527L150.46 141.186C153.693 138.227 157.305 132.078 158.32 127.907C159.825 121.716 161.631 111.482 162.215 107.655L166.094 82.4658C166.576 79.2924 163.385 76.6694 160.177 76.7124C157.03 76.7554 155.061 79.3697 154.458 82.4571L154.424 82.6291L148.671 113.717C146.925 110.553 142.324 109.263 139.461 111.843L117.592 130.255C112.2 134.796 108.459 134.95 105.845 149.192L106.18 149.398L112.931 163.295L129.64 163.433C133.407 157.353 135.591 154.799 141.344 149.527V149.527Z" fill="#D19A6E"/>
<path fill-rule="evenodd" clip-rule="evenodd" d="M128.368 162.669L106.181 149.4L104.323 148.282C102.767 147.353 100.729 147.86 99.7998 149.417L94.4938 158.284C93.565 159.84 94.081 161.87 95.6291 162.799L121.548 178.304C123.096 179.233 125.134 178.726 126.063 177.169L131.369 168.302C132.298 166.754 131.782 164.716 130.234 163.787L128.368 162.669Z" fill="#ECEAED"/>
<path d="M131.283 134.977C131.283 134.977 146.706 121.287 147.662 115.98C147.934 114.464 147.442 112.276 144.732 110.728L144.848 109.998C146.622 100.383 148.257 90.6673 150.03 81.0567C150.529 78.6057 149.54 76.4215 147.158 75.7937C148.233 74.8478 149.695 74.4092 151.174 74.7101C153.719 75.2176 155.379 77.72 154.863 80.257L154.459 82.4584C152.656 91.765 150.982 101.126 149.268 110.462C150.431 111.66 151.217 113.268 151.538 114.882C151.945 116.931 151.859 121.033 146.707 125.486L133.447 136.95C131.943 138.281 130.136 136.397 131.283 134.977V134.977Z" fill="#B57F5F"/>
<path fill-rule="evenodd" clip-rule="evenodd" d="M129.64 163.434C133.415 157.354 135.6 154.8 141.353 149.528L150.468 141.186C153.702 138.228 157.305 132.079 158.329 127.908C159.833 121.716 161.639 111.482 162.224 107.655L162.99 102.693L166.094 82.4662C166.438 80.2561 164.985 78.3039 162.99 77.3493C162.121 76.9278 161.149 76.6957 160.178 76.7128L157.83 92.0205L156.308 101.902C156.299 101.979 156.282 102.056 156.274 102.134C155.654 106.115 153.891 116.083 152.412 122.154C151.389 126.325 147.786 132.474 144.552 135.433L135.436 143.783C129.683 149.046 127.499 153.811 123.724 159.891L128.376 162.668L129.64 163.434Z" fill="#C38C66"/>
<path fill-rule="evenodd" clip-rule="evenodd" d="M126.072 177.169L131.369 168.302C132.306 166.754 131.79 164.716 130.234 163.787L123.724 159.892C124.962 160.631 125.538 162.059 125.254 163.392C125.186 163.745 125.057 164.088 124.859 164.407L119.561 173.273C118.633 174.821 116.612 175.328 115.055 174.417L121.548 178.304C121.557 178.313 121.565 178.313 121.574 178.321C123.131 179.224 125.143 178.717 126.072 177.169V177.169Z" fill="#DAD8DB"/>
</g>
</svg>

<svg width="179" height="179" fill="none" xmlns="http://www.w3.org/2000/svg"><circle cx="89.176" cy="89.821" r="88.948" fill="#000" fill-opacity=".25"/><mask id="a" maskUnits="userSpaceOnUse" x="0" y="0" width="179" height="179"><circle cx="89.176" cy="89.821" r="88.948" fill="#C4C4C4"/></mask><g mask="url(#a)"><path fill-rule="evenodd" clip-rule="evenodd" d="M91.036 115.207l21.62-21.422 2.941-2.916c7.267-7.525 7.267-19.84 0-27.365-6.596-6.837-17.26-5.125-24.311 1.23-1.299 1.17-1.754 1.754-2.107 1.754-.353 0-.808-.584-2.115-1.754-7.043-6.355-17.707-8.067-24.303-1.23-7.267 7.525-7.267 19.84 0 27.365l2.941 2.916 21.61 21.422c.938.739 1.402 1.144 1.867 1.161.464-.017.929-.422 1.857-1.161z" fill="#FF8086"/><path fill-rule="evenodd" clip-rule="evenodd" d="M29.678 113.719L18.757 97.061c-.009-.06 5.151-14.551 5.134-14.603l-.404-2.201a4.716 4.716 0 0 1 3.689-5.547c2.537-.516 5.03 1.144 5.564 3.793l2.184 11.859 3.965 21.482c-1.996 4.042-6.794 3.861-9.21 1.875zm20.424 7.568l-3.036-8.549.585-4.747c-.387-2.322 1.153-4.575 3.474-5.039 2.374-.482 4.713 1.074 5.203 3.551l4.429 23.753-6.415-2.46-4.24-6.509z" fill="#C38C66"/><path fill-rule="evenodd" clip-rule="evenodd" d="M38.889 111.844l-4.73-10.801.766-10.681c.051-2.15 1.582-4.077 3.783-4.515 2.537-.516 5.031 1.144 5.564 3.801l3.38 18.343.026.147 2.425 13.149-6.398-.869-4.816-8.574z" fill="#C38C66"/><path fill-rule="evenodd" clip-rule="evenodd" d="M50.102 121.286l-2.425-13.149-.026-.146c-.387-2.322 1.153-4.575 3.474-5.039a4.345 4.345 0 0 1 3.019.481c-1.703.843-2.726 2.735-2.4 4.679l.026.146 2.572 16.606-4.24-3.578zm-11.213-9.442l-3.965-21.482c.052-2.15 1.583-4.076 3.784-4.515 1.987-.404 3.947.525 4.953 2.219a4.95 4.95 0 0 0-.997.094c-2.193.44-2.7 1.334-2.743 3.483l4.575 24.922-5.607-4.721z" fill="#B57F5F"/><path d="M126.585 53.014a2.322 2.322 0 0 1-1.862-3.71l5.168-6.948a2.323 2.323 0 0 1 3.728 2.772l-5.168 6.95a2.32 2.32 0 0 1-1.866.936zm8.385 13.777a2.324 2.324 0 0 1-.549-4.58l8.282-2.021a2.322 2.322 0 1 1 1.101 4.513l-8.281 2.022a2.33 2.33 0 0 1-.553.066zm-23.993-17.837a2.324 2.324 0 0 1-2.318-2.198l-.455-8.514a2.322 2.322 0 1 1 4.639-.248l.456 8.513a2.323 2.323 0 0 1-2.322 2.447zm-59.205 4.059a2.32 2.32 0 0 1-1.866-.937l-5.168-6.948a2.323 2.323 0 1 1 3.728-2.773l5.168 6.949a2.323 2.323 0 0 1-1.862 3.71zm-8.385 13.778c-.182 0-.367-.022-.552-.067l-8.282-2.02a2.323 2.323 0 1 1 1.102-4.514l8.281 2.02a2.323 2.323 0 0 1-.549 4.581zM67.38 48.955c-.041 0-.083-.002-.126-.004a2.323 2.323 0 0 1-2.195-2.444l.456-8.513a2.323 2.323 0 1 1 4.64.248l-.457 8.514a2.323 2.323 0 0 1-2.317 2.199z" fill="#fff"/><path fill-rule="evenodd" clip-rule="evenodd" d="M115.597 90.869c7.267-7.525 7.267-19.84 0-27.365-3.5-3.629-8.144-4.85-12.787-4.248 5.804 7.576 5.331 18.722-1.428 25.713l-2.941 2.924-19.34 19.169 8.212 8.144c.938.74 1.402 1.144 1.866 1.161.465-.017.929-.421 1.858-1.161l21.619-21.422 2.941-2.915z" fill="#E5646E"/><path fill-rule="evenodd" clip-rule="evenodd" d="M37.005 149.527l-9.115-8.341c-3.234-2.959-6.846-9.108-7.86-13.279-1.505-6.191-3.311-16.425-3.896-20.252l-3.879-25.19c-.481-3.173 2.71-5.796 5.917-5.753 3.148.043 5.117 2.658 5.719 5.745l.034.172 5.753 31.089c.83-1.504 4.48-.703 4.48-.703s3.227-2.526 4.73-1.172l21.87 18.412c5.391 4.541 9.132 4.696 11.746 18.937l-.335.206-6.75 13.898-16.71.137c-3.767-6.08-5.95-8.634-11.704-13.906z" fill="#D19A6E"/><path fill-rule="evenodd" clip-rule="evenodd" d="M67.146 152.401c-2.597-12.685-6.251-12.994-11.437-17.354L33.84 116.635c-1.358-1.222-3.113-1.574-4.755-1.273h-.009c.017-.052.026-.112.043-.163a6.12 6.12 0 0 1 .98-2.142 6.547 6.547 0 0 1 3.14-2.253c1.892-.636 4.041-.404 5.65 1.041l4.179 3.526 7.034 5.916 4.24 3.578 6.415 5.392c5.392 4.541 9.133 4.695 11.747 18.936l-5.358 3.208z" fill="#C38C66"/><path fill-rule="evenodd" clip-rule="evenodd" d="M49.982 162.669L72.169 149.4l1.857-1.118c1.557-.929 3.595-.422 4.524 1.135l5.306 8.867a3.307 3.307 0 0 1-1.135 4.515L56.8 178.304a3.3 3.3 0 0 1-4.514-1.135l-5.306-8.867c-.93-1.548-.413-3.586 1.135-4.515l1.866-1.118z" fill="#ECEAED"/><path fill-rule="evenodd" clip-rule="evenodd" d="M67.147 152.401h.008-.008zm15.573 10.397a3.306 3.306 0 0 0 1.136-4.514l-5.306-8.867a3.31 3.31 0 0 0-4.524-1.135c-2.287 1.376-4.583 2.743-6.87 4.119a3.3 3.3 0 0 1 4.514 1.135l5.297 8.867a3.3 3.3 0 0 1-1.118 4.506l6.871-4.111z" fill="#DAD8DB"/><path d="M47.067 134.977s-15.424-13.69-16.38-18.997c-.272-1.516.22-3.704 2.93-5.252l-.116-.73c-1.774-9.615-3.41-19.33-5.181-28.941-.5-2.451.49-4.636 2.872-5.263a4.65 4.65 0 0 0-4.016-1.084 4.717 4.717 0 0 0-3.69 5.547l.405 2.201c1.803 9.307 3.476 18.668 5.19 28.004-1.163 1.198-1.95 2.806-2.27 4.42-.407 2.049-.32 6.151 4.831 10.604l13.26 11.464a1.465 1.465 0 0 0 2.165-1.973z" fill="#B57F5F"/><path fill-rule="evenodd" clip-rule="evenodd" d="M148.671 113.719l10.921-16.658c.009-.06-5.151-14.551-5.134-14.603l.404-2.201a4.716 4.716 0 0 0-3.689-5.547c-2.537-.516-5.031 1.144-5.564 3.793l-2.185 11.859-3.964 21.482c1.996 4.042 6.794 3.861 9.211 1.875zm-20.423 7.568l3.035-8.549-.585-4.747c.387-2.322-1.152-4.575-3.474-5.039-2.373-.482-4.712 1.074-5.203 3.551l-4.428 23.753 6.415-2.46 4.24-6.509z" fill="#C38C66"/><path fill-rule="evenodd" clip-rule="evenodd" d="M139.461 111.844l4.73-10.801-.765-10.681c-.052-2.15-1.583-4.077-3.784-4.515-2.537-.516-5.031 1.144-5.564 3.801l-3.38 18.343-.026.147-2.425 13.149 6.398-.869 4.816-8.574z" fill="#C38C66"/><path fill-rule="evenodd" clip-rule="evenodd" d="M128.247 121.286l2.425-13.149.026-.146c.387-2.322-1.152-4.575-3.474-5.039a4.345 4.345 0 0 0-3.018.481c1.702.843 2.726 2.735 2.399 4.679l-.026.146-2.571 16.606 4.239-3.578zm11.213-9.442l3.965-21.482c-.052-2.15-1.582-4.076-3.784-4.515-1.986-.404-3.947.525-4.953 2.219.327 0 .662.026.997.094 2.193.44 2.701 1.334 2.744 3.483l-4.575 24.922 5.606-4.721z" fill="#B57F5F"/><path fill-rule="evenodd" clip-rule="evenodd" d="M141.344 149.527l9.116-8.341c3.233-2.959 6.845-9.108 7.86-13.279 1.505-6.191 3.311-16.425 3.895-20.252l3.879-25.19c.482-3.173-2.709-5.796-5.917-5.753-3.147.043-5.116 2.658-5.719 5.745l-.034.172-5.753 31.088c-1.746-3.164-6.347-4.454-9.21-1.874l-21.869 18.412c-5.392 4.541-9.133 4.695-11.747 18.937l.335.206 6.751 13.897 16.709.138c3.767-6.08 5.951-8.634 11.704-13.906z" fill="#D19A6E"/><path fill-rule="evenodd" clip-rule="evenodd" d="M128.368 162.669L106.181 149.4l-1.858-1.118c-1.556-.929-3.594-.422-4.523 1.135l-5.306 8.867a3.307 3.307 0 0 0 1.135 4.515l25.919 15.505a3.3 3.3 0 0 0 4.515-1.135l5.306-8.867c.929-1.548.413-3.586-1.135-4.515l-1.866-1.118z" fill="#ECEAED"/><path d="M131.283 134.977s15.423-13.69 16.379-18.997c.272-1.516-.22-3.704-2.93-5.252l.116-.73c1.774-9.615 3.409-19.33 5.182-28.941.499-2.451-.49-4.636-2.872-5.263a4.65 4.65 0 0 1 4.016-1.084c2.545.508 4.205 3.01 3.689 5.547l-.404 2.201c-1.803 9.307-3.477 18.668-5.191 28.004 1.163 1.198 1.949 2.806 2.27 4.42.407 2.049.321 6.151-4.831 10.604l-13.26 11.464a1.465 1.465 0 0 1-2.164-1.973z" fill="#B57F5F"/><path fill-rule="evenodd" clip-rule="evenodd" d="M129.64 163.434c3.775-6.08 5.96-8.634 11.713-13.906l9.115-8.342c3.234-2.958 6.837-9.107 7.861-13.278 1.504-6.192 3.31-16.426 3.895-20.253l.766-4.962 3.104-20.227c.344-2.21-1.109-4.162-3.104-5.117a6.238 6.238 0 0 0-2.812-.636L157.83 92.02l-1.522 9.881c-.009.077-.026.154-.034.232-.62 3.981-2.383 13.949-3.862 20.02-1.023 4.171-4.626 10.32-7.86 13.279l-9.116 8.35c-5.753 5.263-7.937 10.028-11.712 16.108l4.652 2.777 1.264.766z" fill="#C38C66"/><path fill-rule="evenodd" clip-rule="evenodd" d="M126.072 177.169l5.297-8.867c.937-1.548.421-3.586-1.135-4.515l-6.51-3.895a3.285 3.285 0 0 1 1.53 3.5 2.987 2.987 0 0 1-.395 1.015l-5.298 8.866c-.928 1.548-2.949 2.055-4.506 1.144l6.493 3.887c.009.009.017.009.026.017a3.315 3.315 0 0 0 4.498-1.152z" fill="#DAD8DB"/></g></svg>
